X: 11291
T: AH! IL CIEL CONSENTA.
C: Bellini.
Q: "Dolce."
%R: air
B: W. Hamilton "Universal Tune-Book" Vol. 1 Glasgow 1844 p.129 #1
S: http://imslp.org/wiki/Hamilton's_Universal_Tune-Book_(Various)
Z: 2016 John Chambers <jc:trillian.mit.edu>
M: C
L: 1/8
K: F
% - - - - - - - - - - - - - - - - - - - - - - - - -
[|\
c2c2 f2e2 | (e2d2) d2z2 | G2G>G d2c2 | (B2A2) A2z2 |\
c2c>c f2e2 | ("_>"e2d)z (f4 | fe)dc (cB)(AG) | F2z2 z4 |\
A2A2 (cB)(AB) | GAG2 z4 |
A2A>A (cB)(AB) | G>AG2 z4 |\
c2c>c f2e2 | ("_>"e2d)z f4- | fe(dc) (cB)(AG) | F2z2 "_>"d4 |\
c3A B>AB>c | A2z2 B4 | A3F G>^F (GB/A/) | F4 z4 H|]
% - - - - - - - - - - - - - - - - - - - - - - - - -

%%sep 1 1 500
%%sep 1 1 500

